Numix/16/status/indicator-keyboard-Ja-4.svg

<?xml version="1.0" encoding="UTF-8" standalone="no"?>
<svg
   xmlns:dc="http://purl.org/dc/elements/1.1/"
   xmlns:cc="http://creativecommons.org/ns#"
   xmlns:rdf="http://www.w3.org/1999/02/22-rdf-syntax-ns#"
   xmlns:svg="http://www.w3.org/2000/svg"
   xmlns="http://www.w3.org/2000/svg"
   xmlns:sodipodi="http://sodipodi.sourceforge.net/DTD/sodipodi-0.dtd"
   xmlns:inkscape="http://www.inkscape.org/namespaces/inkscape"
   viewBox="0 0 16 16"
   id="svg2"
   version="1.1"
   inkscape:version="0.91 r13725"
   sodipodi:docname="indicator-keyboard-Ja-4.svg">
  <metadata
     id="metadata14">
    <rdf:RDF>
      <cc:Work
         rdf:about="">
        <dc:format>image/svg+xml</dc:format>
        <dc:type
           rdf:resource="http://purl.org/dc/dcmitype/StillImage" />
      </cc:Work>
    </rdf:RDF>
  </metadata>
  <defs
     id="defs12" />
  <sodipodi:namedview
     pagecolor="#ffffff"
     bordercolor="#666666"
     borderopacity="1"
     objecttolerance="10"
     gridtolerance="10"
     guidetolerance="10"
     inkscape:pageopacity="0"
     inkscape:pageshadow="2"
     inkscape:window-width="640"
     inkscape:window-height="480"
     id="namedview10"
     showgrid="false"
     inkscape:zoom="14.75"
     inkscape:cx="8"
     inkscape:cy="8"
     inkscape:window-x="65"
     inkscape:window-y="24"
     inkscape:window-maximized="0"
     inkscape:current-layer="svg2" />
  <path
     style="fill:#ececec;fill-opacity:1"
     d="M 1.5996094 0 C 0.71320937 2.9605947e-16 0 0.71320937 0 1.5996094 L 0 14.400391 C 2.9605947e-16 15.286791 0.71320937 16 1.5996094 16 L 14.400391 16 C 15.286791 16 16 15.286791 16 14.400391 L 16 1.5996094 C 16 0.71320937 15.286791 0 14.400391 0 L 1.5996094 0 z M 4.9667969 4.859375 L 5.578125 4.859375 L 5.578125 9.1347656 C 5.578125 9.4347656 5.5482812 9.7127031 5.4882812 9.9707031 C 5.4282813 10.222703 5.3238281 10.444719 5.1738281 10.636719 C 5.0298281 10.822719 4.8338906 10.970125 4.5878906 11.078125 C 4.3478906 11.180125 4.0456875 11.230469 3.6796875 11.230469 C 3.4636875 11.230469 3.2659375 11.209969 3.0859375 11.167969 C 2.9059375 11.131969 2.7454219 11.087203 2.6074219 11.033203 C 2.4694219 10.979203 2.3538125 10.921328 2.2578125 10.861328 C 2.1678125 10.801328 2.0987812 10.747219 2.0507812 10.699219 L 2.3378906 10.205078 C 2.3918906 10.253078 2.4571562 10.307187 2.5351562 10.367188 C 2.6191562 10.421187 2.7162188 10.471531 2.8242188 10.519531 C 2.9322188 10.567531 3.0515937 10.606719 3.1835938 10.636719 C 3.3155937 10.666719 3.4592344 10.681641 3.6152344 10.681641 C 4.0772344 10.681641 4.4168125 10.562266 4.6328125 10.322266 C 4.8548125 10.076265 4.9667969 9.6583125 4.9667969 9.0703125 L 4.9667969 4.859375 z M 8.5429688 6.3359375 C 8.8489687 6.3359375 9.1064063 6.3807031 9.3164062 6.4707031 C 9.5324062 6.5547031 9.7058906 6.6740781 9.8378906 6.8300781 C 9.9698906 6.9800781 10.066953 7.1591406 10.126953 7.3691406 C 10.186953 7.5791406 10.216797 7.8086875 10.216797 8.0546875 L 10.216797 10.988281 C 10.156797 11.006281 10.069078 11.026781 9.9550781 11.050781 C 9.8410781 11.068781 9.7085938 11.089281 9.5585938 11.113281 C 9.4085937 11.137281 9.2406875 11.155969 9.0546875 11.167969 C 8.8746875 11.185969 8.6900469 11.195313 8.4980469 11.195312 C 8.2520469 11.195312 8.0225 11.167281 7.8125 11.113281 C 7.6085 11.059281 7.4294375 10.975328 7.2734375 10.861328 C 7.1234375 10.741328 7.0021094 10.592109 6.9121094 10.412109 C 6.8281094 10.226109 6.7871094 10.000328 6.7871094 9.7363281 C 6.7871094 9.4843281 6.8356406 9.2698437 6.9316406 9.0898438 C 7.0276406 8.9098438 7.1619375 8.7624375 7.3359375 8.6484375 C 7.5099375 8.5284375 7.7170313 8.4407187 7.9570312 8.3867188 C 8.1970312 8.3327188 8.4582344 8.3066406 8.7402344 8.3066406 C 8.8242344 8.3066406 8.9119531 8.3122187 9.0019531 8.3242188 C 9.0979531 8.3302187 9.1874844 8.341375 9.2714844 8.359375 C 9.3614844 8.371375 9.4360937 8.3862969 9.4960938 8.4042969 C 9.5620937 8.4162969 9.6068594 8.4294063 9.6308594 8.4414062 L 9.6308594 8.1523438 C 9.6308594 7.9903438 9.6197031 7.8355469 9.5957031 7.6855469 C 9.5717031 7.5295469 9.5175937 7.3914844 9.4335938 7.2714844 C 9.3555937 7.1454844 9.2417969 7.0466094 9.0917969 6.9746094 C 8.9477969 6.8966094 8.755625 6.8574219 8.515625 6.8574219 C 8.173625 6.8574219 7.918 6.8816875 7.75 6.9296875 C 7.582 6.9776875 7.4588594 7.016875 7.3808594 7.046875 L 7.3007812 6.5332031 C 7.4027812 6.4852031 7.5575781 6.4404375 7.7675781 6.3984375 C 7.9835781 6.3564375 8.2429687 6.3359375 8.5429688 6.3359375 z M 8.7226562 8.8105469 C 8.5786562 8.8105469 8.4274844 8.8217031 8.2714844 8.8457031 C 8.1154844 8.8637031 7.9718438 8.9084687 7.8398438 8.9804688 C 7.7078437 9.0464688 7.599625 9.1397656 7.515625 9.2597656 C 7.431625 9.3797656 7.390625 9.5383281 7.390625 9.7363281 C 7.390625 9.9103281 7.4167031 10.057734 7.4707031 10.177734 C 7.5307031 10.297734 7.6128438 10.394797 7.7148438 10.466797 C 7.8228437 10.538797 7.9477969 10.592906 8.0917969 10.628906 C 8.2417969 10.658906 8.4097031 10.673828 8.5957031 10.673828 C 8.8237031 10.673828 9.0214531 10.666297 9.1894531 10.654297 C 9.3634531 10.636297 9.5108594 10.615797 9.6308594 10.591797 L 9.6308594 8.953125 C 9.5648594 8.923125 9.4604063 8.8932813 9.3164062 8.8632812 C 9.1724062 8.8272812 8.9746563 8.8105469 8.7226562 8.8105469 z M 13.048828 8.8417969 L 13.447266 8.8417969 L 13.447266 11.486328 L 13.949219 11.486328 L 13.949219 11.796875 L 13.447266 11.796875 L 13.447266 12.896484 L 13.072266 12.896484 L 13.072266 11.796875 L 11.236328 11.796875 L 11.236328 11.5625 C 11.306528 11.3753 11.402544 11.163688 11.527344 10.929688 C 11.656044 10.695687 11.801037 10.456638 11.960938 10.210938 C 12.120838 9.9652374 12.295222 9.7261874 12.482422 9.4921875 C 12.669622 9.2542875 12.857728 9.0367969 13.048828 8.8417969 z M 13.072266 9.2695312 C 12.935766 9.4099313 12.79665 9.5706063 12.65625 9.7539062 C 12.51585 9.9372063 12.382606 10.129225 12.253906 10.328125 C 12.129106 10.523125 12.011544 10.719069 11.902344 10.917969 C 11.793144 11.116869 11.701053 11.306928 11.626953 11.486328 L 13.072266 11.486328 L 13.072266 9.2695312 z "
     id="path4" />
</svg>

<svg xmlns="http://www.w3.org/2000/svg" viewBox="0 0 16 16">
 <path d="m 1.6 0 c -0.886 0 -1.6 0.713 -1.6 1.6 l 0 12.801 c 0 0.886 0.713 1.6 1.6 1.6 l 12.801 0 c 0.886 0 1.6 -0.713 1.6 -1.6 l 0 -12.801 c 0 -0.886 -0.713 -1.6 -1.6 -1.6 l -12.801 0 z m 3.367 4.859 l 0.611 0 l 0 4.275 c 0 0.3 -0.03 0.578 -0.09 0.836 c -0.06 0.252 -0.164 0.474 -0.314 0.666 c -0.144 0.186 -0.34 0.333 -0.586 0.441 c -0.24 0.102 -0.542 0.152 -0.908 0.152 c -0.216 0 -0.414 -0.021 -0.594 -0.063 c -0.18 -0.036 -0.341 -0.081 -0.479 -0.135 c -0.138 -0.054 -0.254 -0.112 -0.35 -0.172 c -0.09 -0.06 -0.159 -0.114 -0.207 -0.162 l 0.287 -0.494 c 0.054 0.048 0.119 0.102 0.197 0.162 c 0.084 0.054 0.181 0.104 0.289 0.152 c 0.108 0.048 0.227 0.087 0.359 0.117 c 0.132 0.03 0.276 0.045 0.432 0.045 c 0.462 0 0.802 -0.119 1.018 -0.359 c 0.222 -0.246 0.334 -0.664 0.334 -1.252 l 0 -4.211 z m 3.576 1.477 c 0.306 0 0.563 0.045 0.773 0.135 c 0.216 0.084 0.389 0.203 0.521 0.359 c 0.132 0.15 0.229 0.329 0.289 0.539 c 0.06 0.21 0.09 0.44 0.09 0.686 l 0 2.934 c -0.06 0.018 -0.148 0.038 -0.262 0.063 c -0.114 0.018 -0.246 0.038 -0.396 0.063 c -0.15 0.024 -0.318 0.043 -0.504 0.055 c -0.18 0.018 -0.365 0.027 -0.557 0.027 c -0.246 0 -0.476 -0.028 -0.686 -0.082 c -0.204 -0.054 -0.383 -0.138 -0.539 -0.252 c -0.15 -0.12 -0.271 -0.269 -0.361 -0.449 c -0.084 -0.186 -0.125 -0.412 -0.125 -0.676 c 0 -0.252 0.049 -0.466 0.145 -0.646 c 0.096 -0.18 0.23 -0.327 0.404 -0.441 c 0.174 -0.12 0.381 -0.208 0.621 -0.262 c 0.24 -0.054 0.501 -0.08 0.783 -0.08 c 0.084 0 0.172 0.006 0.262 0.018 c 0.096 0.006 0.186 0.017 0.27 0.035 c 0.09 0.012 0.165 0.027 0.225 0.045 c 0.066 0.012 0.111 0.025 0.135 0.037 l 0 -0.289 c 0 -0.162 -0.011 -0.317 -0.035 -0.467 c -0.024 -0.156 -0.078 -0.294 -0.162 -0.414 c -0.078 -0.126 -0.192 -0.225 -0.342 -0.297 c -0.144 -0.078 -0.336 -0.117 -0.576 -0.117 c -0.342 0 -0.598 0.024 -0.766 0.072 c -0.168 0.048 -0.291 0.087 -0.369 0.117 l -0.08 -0.514 c 0.102 -0.048 0.257 -0.093 0.467 -0.135 c 0.216 -0.042 0.475 -0.063 0.775 -0.063 z m 0.18 2.475 c -0.144 0 -0.295 0.011 -0.451 0.035 c -0.156 0.018 -0.3 0.063 -0.432 0.135 c -0.132 0.066 -0.24 0.159 -0.324 0.279 c -0.084 0.12 -0.125 0.279 -0.125 0.477 c 0 0.174 0.026 0.321 0.08 0.441 c 0.06 0.12 0.142 0.217 0.244 0.289 c 0.108 0.072 0.233 0.126 0.377 0.162 c 0.15 0.03 0.318 0.045 0.504 0.045 c 0.228 0 0.426 -0.008 0.594 -0.02 c 0.174 -0.018 0.321 -0.038 0.441 -0.063 l 0 -1.639 c -0.066 -0.03 -0.17 -0.06 -0.314 -0.09 c -0.144 -0.036 -0.342 -0.053 -0.594 -0.053 z m 4.326 0.031 l 0.398 0 l 0 2.645 l 0.502 0 l 0 0.311 l -0.502 0 l 0 1.1 l -0.375 0 l 0 -1.1 l -1.836 0 l 0 -0.234 c 0.07 -0.187 0.166 -0.399 0.291 -0.633 c 0.129 -0.234 0.274 -0.473 0.434 -0.719 c 0.16 -0.246 0.334 -0.485 0.521 -0.719 c 0.187 -0.238 0.375 -0.455 0.566 -0.65 z m 0.023 0.428 c -0.137 0.14 -0.276 0.301 -0.416 0.484 c -0.14 0.183 -0.274 0.375 -0.402 0.574 c -0.125 0.195 -0.242 0.391 -0.352 0.59 c -0.109 0.199 -0.201 0.389 -0.275 0.568 l 1.445 0 l 0 -2.217 z" style="fill:#ececec;fill-opacity:1"/>
</svg>
